X: 4
M: C|
L: 1/8
K: A
V: 1
d |\
cedf {f}e2cA | (FA) .d.f ecBd |\
cedf {f}e2cA | dBGB A2A :|\
d |\
.c.e.a.f .e.d.c.e | .d.c.B.A .G.F.E.d |
.c.e.a.g .f.g.a.f | (3(gab) af {f}e2ed |\
.c.e.a.g .f.e.d.c | .d.c.B.A .G.F.E.d |\
.c.A.d.B .e.c.f.d | .c.B.A.G A2A |]
V: 2 clef=bass middle=d
z |\
z |\


